X: 1242
T: Kederden mi Neden Bilmem
C: Nasib´in Mehmet Yürü
O: Turkey
F: http://compmusic.upf.edu/node/140
N: hicaz--sarki--duyek--kederden_mi--nasibin_mehmet_yuru
N: makam= hicaz
N: form= sarki
N: usul= duyek = 8/4
M: 8/4
L: 1/16
K: C _7/8B ^f ^c 
Q: 1/4=108
%%MIDI tuningsystem comma53
z2 dc d=f ed cd cB A4  | z2 dc d=f ed ed cd e4  | 
w:   |   | 
d2 (3fef g2 fe (3gfe (3def g4  | gf fe ed dc cB BA A4  | 
w:   |   | 
z2 dc d=f ed cd cB A4  | z2 dc d=f ed ed cd e4  | 
w:   |   | 
d2 (3fef g2 fe (3gfe (3def g4  | gf fe ed dc cB BA A4  | 
w:   |   | 
A2 d4 e=f ed cB A4  | e2 =f4 fe ed cd e4  | \
w:  Ke der *  *  den  *  *  *  mi   |  ne den  *  *  bil *  *  *  mem   | 
A2 d4 e2 fg ef (3gfe d2  | 
w:  sa rar *  mış  *  *  *  ren  | 
d2 ag gf fe ef ga a/g/f/e/ d2  | z2 AB cd e=f ed cB A4  | 
w:  gi  ruh *  *  *  *  *  sa *  *  *  rın    |  SAZ  | 
A2 d4 e=f ed cB A4  | e2 =f4 fe ed cd e4  | \
w:  Ke der *  *  den  *  *  *  mi   |  ne den  *  *  bil *  *  *  mem   | 
A2 d4 e2 fg ef (3gfe d2  | 
w:  sa rar *  mış  *  *  *  ren  | 
d2 ag gf fe ef ga a/g/f/e/ d2  | a/g/a/=b/ a/g/f g/f/g/a/ g/f/e f/e/f/g/ f/e/d d/e/f/g/ a/f/g/e/  | 
w:  gi  ruh *  *  *  *  *  sa *  *  *  rın    |  SAZ  | 
d2 ag gf fe (3gfe (3def g4  | d2 ag gf fe ef ga a/g/f/^e/ f2  | 
w:  Se nin  *  *  *  *  *  çün  *  *  *  *  *  bak   |  na sıl  *  *  *  *  *  ağ *  *  *  lar   | 
d2 ga fg e=f de cB c{d}c/B/ A2  | \
w:  ya nar  *  *  *  *  *  bu  *  *  *  â  | 
A2 ed dc cB cd/c/ BA A4  | 
w:  şık_ ı  *  *  *  *  *  zâ *  *  *  *  rın    | 
a/g/a/=b/ a/g/f g/f/g/a/ g/f/e f/e/f/g/ f/e/d d/e/f/g/ a/f/g/e/  | 
w:  SAZ  | 
d2 ag gf fe (3gfe (3def g4  | d2 ag gf fe ef ga a/g/f/^e/ f2  | 
w:  Se nin  *  *  *  *  *  çün  *  *  *  *  *  bak   |  na sıl  *  *  *  *  *  ağ *  *  *  lar   | 
d2 ga fg e=f de cB c{d}c/B/ A2  | \
w:  ya nar  *  *  *  *  *  bu  *  *  *  â  | 
A2 ed dc cB cd/c/ BA A4  | 
w:  şık_ ı  *  *  *  *  *  zâ *  *  *  *  rın    | 
d2 de fg a=b ag fg a4  | g2 g4 a2 (3aga (3=bba a4  | 
w:  SAZ  |  A ğar *  sa  *  *  *  *  *  saç  | 
a2 =b4 ba ag2a a/g/f/^e/ f2  | d2 ga fg e=f de cB c{d}c/B/ A2  | 
w:  la rın  *  *  kâ *  *  fi   |  ba na  *  *  *  *  *  çeş *  *  *  mi   | 
d2 ag gf fe ef ga a/g/f/e/ d2  | a/g/a/=b/ a/g/f g/f/g/a/ g/f/e f/e/f/g/ f/e/d d/e/f/g/ a/f/g/e/  | 
w:  fü sun *  *  *  *  *  kâ *  *  *  rın    |  SAZ  | 
d2 ag gf fe (3gfe (3def g4  | d2 ag gf fe ef ga a/g/f/^e/ f2  | 
w:  Se nin  *  *  *  *  *  çün  *  *  *  *  *  bak   |  na sıl  *  *  *  *  *  ağ *  *  *  lar   | 
d2 ga fg e=f de cB c{d}c/B/ A2  | \
w:  ya nar  *  *  *  *  *  bu  *  *  *  â  | 
A2 ed dc cB cd/c/ BA A4  | 
w:  şık_ ı  *  *  *  *  *  zâ *  *  *  *  rın    | 
|


